picto/restaurant.svg

<svg class="color-immutable" width="24" height="24" viewBox="0 0 24 24" fill="none" xmlns="http://www.w3.org/2000/svg"><g clip-path="url(#a)"><path d="M0 22.5v-21C0 .675.675 0 1.5 0h21c.825 0 1.5.675 1.5 1.5v21c0 .825-.675 1.5-1.5 1.5h-21C.675 24 0 23.325 0 22.5Z" fill="#2D327D"/><path d="M10.688 3.75c-.725 0-1.313.589-1.313 1.313V13.5h.751v6a.937.937 0 1 0 1.874 0V5.063a1.313 1.313 0 0 0-1.312-1.313ZM7.219 3.75a.281.281 0 0 0-.281.281v3.844h-.563V4.031a.281.281 0 0 0-.563 0v3.844H5.25V4.031a.281.281 0 0 0-.562 0v3.844h-.563V4.031a.281.281 0 0 0-.564 0V7.896c0 .756.39 1.457 1.031 1.855V19.5a.938.938 0 0 0 1.875 0V9.751A2.182 2.182 0 0 0 7.5 7.896V4.031a.281.281 0 0 0-.281-.281Z" fill="#fff"/></g><defs><clipPath id="a"><path fill="#fff" d="M0 0h24v24H0z"/></clipPath></defs></svg>

<svg class="color-immutable" width="24" height="24" viewBox="0 0 24 24" fill="none" xmlns="http://www.w3.org/2000/svg"><path d="M0 22.5V1.5C0 0.675 0.675 0 1.5 0H22.5C23.325 0 24 0.675 24 1.5V22.5C24 23.325 23.325 24 22.5 24H1.5C0.675 24 0 23.325 0 22.5Z" fill="#2D327D"/><path d="M10.688 3.75C9.963 3.75 9.375 4.339 9.375 5.063V13.5H10.126V19.5C10.126 20.018 10.545 20.438 11.063 20.438C11.581 20.438 12 20.018 12 19.5V5.063C12.001 4.339 11.412 3.75 10.688 3.75Z" fill="white"/><path d="M7.219 3.75C7.064 3.75 6.938 3.876 6.938 4.031V7.875H6.375V4.031C6.375 3.876 6.249 3.75 6.093 3.75C5.938 3.75 5.812 3.876 5.812 4.031V7.875H5.25V4.031C5.25 3.876 5.124 3.75 4.969 3.75C4.814 3.75 4.688 3.876 4.688 4.031V7.875H4.125V4.031C4.125 3.876 3.999 3.75 3.843 3.75C3.688 3.75 3.561 3.876 3.561 4.031V7.875C3.561 7.882 3.561 7.889 3.561 7.896C3.561 8.652 3.951 9.353 4.592 9.751V19.5C4.592 20.018 5.013 20.438 5.529 20.438C6.047 20.438 6.467 20.018 6.467 19.5V9.751C7.11 9.352 7.5 8.651 7.5 7.896C7.5 7.889 7.5 7.883 7.5 7.875V4.031C7.5 3.876 7.374 3.75 7.219 3.75Z" fill="white"/></svg>
